X: 110
T: Maid on the Green
M: 6/8
L: 1/8
R: Jig
K: G
d|gfg e2d|Bee dBA|BGG dGG|BAA ABd|
gfg e2d|Bee dBA|BGG dBA|BGF G2 :|
d|gfg afd|gfg a2f|gfg eag|fdd dga|
bgb afa|gfg e2d|Bee dBA|BGF G2 :|
